X:10848
T:Miss Bakers Hornpipe. TLY.078
M:C
L:1/8
S:Wm.Tildesley,Swinton,Lancs.1860s.
R:Hornpipe
O:England.
A:Lancashire.
H:1860.
Z:Taz Tarry.
K:F
cB|A2F2 FAGF| EG B2 BdcB| Acde fcdB| A2 F2 F2 cB| A2F2 FAGF|! EG B2 BdcB
|
 Acde fcdB| A2 F2 F2:|
|:c2| fcAc fagf| gece gbag|! afge fdgf| e2 c2 c2 fe| dcBA B2 ba| gfed c2
 BA
| Bcde fcdB A2 F2 F2||
